X:1
T:Kinfanns House
T:Kinfanns House
T:Nathaniel Gow (1763-1831)
C:Nathaniel Gow (1763-1831)
L:1/8
M:3/4
K:F
V:1 treble 
V:1
 F>G | A2 c2 A>F |{A} G2 F2 f>c | d<f c<A d>B | A2 G2 TF>G | A>B{AB} c2 A>F | G2 F2 Tf>g | %7
 a>gfedc | A4 :| Tf>g |{fg} a>gfc (d<f) | c2 A2 f>c | (d<f) (c<a) (A/c/)B/A/ | [FA]2 [EG]2 Tf>g | %14
 a>gfefa | c2{dc} A2 f>e |{e} d>c de fa |{a} A4 Tf>g | a/f z/ g/e z/ f/d z/ | c2 A2 f>c | %20
 (d<f) cA FG/A/ | [FA]2{BA} [EG]2 FA | c3 e/d/ BA | d>e f2 ed | (c<d) (A<B) TG>F | F4 || %26

